X: 339
T: Ping diao
L: 1/8
M: 4/4
K: C
G2G2B c d g [I:setbarnb 1]| 
g g/ e/ d c d g d A | 
A G G E G> A c c | 
c> G E DC4 | 
G> G G C DG2c | 
G> E D C D ED2 | 
GG2A c B A c | 
d> g d AG4 |]

@@@ Tune index: 9213
